X: 23670
T: Linen Cap, The
R: reel
M: 4/4
K: Amajor
a2ed cdec|Bcde fBBg|a2ed cdec|dfed cAAg|
a2ed cdec|Bcde ~f3g|~a3e (3fga ec|dfed cAAB|
cAEA ~c3A|Bcde fBBd|cAEA ~c3A|dfed cAAB|
cAEA ~c3A|Bcde ~f3g|~a3e (3fga ec|dfed cAA2|

